build/flags/Egypt.svg

<svg xmlns="http://www.w3.org/2000/svg" fill="none" viewBox="0 0 28 28" focusable="false"><defs><filter id="Egypt_svg__a"><feColorMatrix values="0 0 0 0 1 0 0 0 0 1 0 0 0 0 1 0 0 0 1 0"/></filter></defs><mask id="Egypt_svg__b" width="28" height="20" x="0" y="4" maskUnits="userSpaceOnUse"><g filter="url(#Egypt_svg__a)"><rect width="28" height="20" y="4" fill="#FFF" rx="3"/><rect width="27.5" height="19.5" x=".25" y="4.25" stroke="#F5F5F5" stroke-width=".5" rx="2.75"/></g></mask><path fill="none" d="M0 0H28V28H0z"/><rect width="28" height="20" y="4" fill="#FFF" rx="3"/><rect width="27.5" height="19.5" x=".25" y="4.25" stroke="#D6D8DD" stroke-width=".5" rx="2.75"/><g mask="url(#Egypt_svg__b)"><path fill="#E41D33" fill-rule="evenodd" d="M0 10.6667L28 10.6667L28 4L0 4L0 10.6667Z"/><path d="M28 10.6667L28 4L0 4L0 10.6667L28 10.6667Z"/><path fill="#262626" fill-rule="evenodd" d="M0 24L28 24L28 17.3334L0 17.3334L0 24Z"/><path d="M28 24L28 17.3334L0 17.3334L0 24L28 24Z"/><path fill="#F4B32E" fill-opacity=".25" fill-rule="evenodd" d="M10.6667 12.6667C10.6667 12.2985 10.9652 12 11.3334 12L11.794 12C11.9203 12 12.0357 12.0713 12.0922 12.1843L12.6667 13.3333C12.6667 13.3333 13.3991 12 14 12C14.6667 12 15.3334 13.3333 15.3334 13.3333L15.9079 12.1843C15.9644 12.0713 16.0798 12 16.206 12L16.6667 12C17.0349 12 17.3334 12.2985 17.3334 12.6667L17.3334 14.7543C17.3334 15.2868 16.7399 15.6044 16.2969 15.309L15.3334 14.6667L14.6667 14.6667L14.6667 15.3333C14.6667 15.7015 14.3682 16 14 16L14 16C13.6318 16 13.3334 15.7015 13.3334 15.3333L13.3334 14.6667L12.6667 14.6667L11.7032 15.309C11.2601 15.6044 10.6667 15.2868 10.6667 14.7543L10.6667 12.6667Z"/><path fill="#C5A745" fill-rule="evenodd" d="M12.3155 12.6309L12.0922 12.1843C12.0357 12.0713 11.9203 12 11.794 12L11.3334 12C10.9652 12 10.6667 12.2985 10.6667 12.6667L10.6667 14.7543C10.6667 15.2868 11.2601 15.6044 11.7032 15.309L12.6077 14.706L12.6667 14.6667L13.3334 14.6667L13.3334 15.3333C13.3334 15.7015 13.6318 16 14 16C14.3682 16 14.6667 15.7015 14.6667 15.3333L14.6667 14.6667L15.3334 14.6667L15.3924 14.706L16.2969 15.309C16.7399 15.6044 17.3334 15.2868 17.3334 14.7543L17.3334 12.6667C17.3334 12.2985 17.0349 12 16.6667 12L16.206 12C16.0798 12 15.9644 12.0713 15.9079 12.1843L15.691 12.618L15.3334 13.3333C15.3334 13.3333 15.1679 13.0025 14.9195 12.6704C14.6692 12.3358 14.3346 12 14 12C13.6926 12 13.3508 12.3489 13.0903 12.6898C12.8414 13.0152 12.6667 13.3333 12.6667 13.3333L12.3155 12.6309ZM15.6928 14.1051L16.6667 14.7543L16.6667 12.6667L16.412 12.6667L15.6928 14.1051ZM14.9213 14L14.7371 13.6315C14.7157 13.5887 14.6843 13.5319 14.6429 13.4609C14.5586 13.3164 14.4721 13.185 14.3834 13.0667C14.2714 12.9174 14.168 12.8048 14.0731 12.7289C14.0508 12.711 14.0305 12.6964 14.0123 12.6851C13.9966 12.6958 13.979 12.7091 13.9597 12.7248C13.8628 12.8039 13.7546 12.9206 13.635 13.0749C13.5412 13.1961 13.4482 13.3305 13.356 13.4781C13.3105 13.5509 13.2755 13.6096 13.251 13.6543L13.0611 14L14.9213 14ZM12.3072 14.1051L11.588 12.6667L11.3334 12.6667L11.3334 14.7543L12.3072 14.1051Z"/></g></svg>

<svg xmlns="http://www.w3.org/2000/svg" fill="none" viewBox="0 0 28 28" focusable="false"><path fill="none" d="M0 0h28v28H0z"/><rect width="28" height="20" y="4" fill="#FFF" rx="3"/><rect width="27.5" height="19.5" x=".25" y="4.25" stroke="#D6D8DD" stroke-width=".5" rx="3"/><mask id="Egypt_svg__a" width="28" height="20" x="0" y="4" mask-type="alpha" maskUnits="userSpaceOnUse"><rect width="28" height="20" y="4" fill="#FFF" rx="3"/><rect width="27.5" height="19.5" x=".25" y="4.25" stroke="#F5F5F5" stroke-width=".5" rx="3"/></mask><g mask="url(#Egypt_svg__a)"><path fill="#E41D33" fill-rule="evenodd" d="M0 10.66h28V4H0z"/><path d="M28 10.66V4H0v6.66z"/></g><g mask="url(#Egypt_svg__a)"><path fill="#262626" fill-rule="evenodd" d="M0 24h28v-6.67H0z"/><path d="M28 24v-6.67H0V24z"/></g><g fill-rule="evenodd" mask="url(#Egypt_svg__a)"><path fill="#F4B32E" fill-opacity=".25" d="M10.66 12.66c0-.37.3-.66.67-.66h.46c.13 0 .24.07.3.18l.57 1.15S13.39 12 14 12c.66 0 1.33 1.33 1.33 1.33l.57-1.15c.06-.11.17-.18.3-.18h.46c.37 0 .67.29.67.66v2.09c0 .53-.6.85-1.04.55l-.96-.64h-.67v.67c0 .37-.3.67-.66.67a.67.67 0 0 1-.67-.67v-.67h-.67l-.96.64a.667.667 0 0 1-1.04-.55z"/><path fill="#C6A846" d="m12.31 12.63-.22-.45a.34.34 0 0 0-.3-.18h-.46c-.37 0-.67.29-.67.66v2.09c0 .53.6.85 1.04.55l.9-.6.06-.04h.67v.67c0 .37.3.67.67.67.36 0 .66-.3.66-.67v-.67h.67l.06.04.9.6c.44.3 1.04-.02 1.04-.55v-2.09c0-.37-.3-.66-.67-.66h-.46c-.13 0-.24.07-.3.18l-.21.43-.36.72s-.17-.33-.42-.66c-.25-.34-.58-.67-.91-.67-.31 0-.65.34-.91.68-.25.33-.43.65-.43.65zm3.38 1.47.97.65v-2.09h-.25zm-.77-.1-.19-.37q-.03-.07-.09-.17-.13-.22-.26-.4-.17-.22-.31-.34-.04-.02-.06-.04l-.06.04q-.14.12-.32.35-.14.18-.28.4-.07.11-.1.18l-.19.35zm-2.62.1-.72-1.44h-.25v2.09z"/></g></svg>
